!! 00000] TT[WS
!!!OTL: Ku lingding
!!!ARE: Asia, China, Shanxi Qinyuan
!! Ethnic Group: Han
!! WII, 159 (1)
!!!SCT: J0640
!!!YEM: Copyright 1995, estate of Helmut Schaffrath.
**kern
*ICvox
*Ivox
*M4/4
*k[f#]
*G:
{8.dd
16ee
8dd
8cc
2a
=1
8.dd
16ee
8dd
8a
4g
8f#
16e
16d}
=2
{8.dd
16ee
8dd
8cc
8b
8a
8g
8f#
=3
8e
8B
8d
16e
16g
2d}
=4
{8a
8g
4a
8dd
8ee
8dd
8cc
=5
8b
8dd
8a
8d
8a
8b
8a
8g
=6
8f#
8e
8d
16e
16g
2d}
=7
{8a
8g
4a
8dd
8ee
8dd
8cc
=8
8b
8dd
8a
8d
8a
8b
8a
8g
=9
8f#
8e
8d
16e
16g
2d}
==
!!!AGN: Xiaodiao. Qingge, Aisu
!!!ONB: ESAC (Essen Associative Code) Database: CHINA
!!!AMT: simple quadruple
!!!AIN: vox
!!!EED: Helmut Schaffrath
!!!EEV: 1.0
*-
